X:193
T:Each Has A Lover But Me. HSJJ.195
M:6/8
L:1/8
Q:3/8=100
S:HSJ Jackson,Wyresdale,Lancs.1823
R:.Air
O:England
A:Lancashire
H:1823
Z:vmp.Chris Partington
K:C
G|”^Lively”c>Bc AcA|G3E2G|ABc fed|(c3B2)G|!
c>Bc AcA|G3E2c|BAA cBB|dczz2c|!
cee ece|g3d2d|dcA edc|cBzz2d|!
e^fg gfe|d2zzdd|e^fg gfe|edzz2g|!
egzz2e|dgzz2d|dgB AGA|B3G2G|!
cBc DEG|A3G2G|ABc fed|(c3BB)B|!
cBc DEG|A3G2c|cAA GcB|c3-c2e|!
ed^c dfz|dcB cHec|cAA Ged|c3-c2|]
